X: 39315
T: Tallarin Polskat
R: polka
M: 2/4
K: Gmajor
a|b2a2|g>a b/c'/b/d'/|b/a/d' b/a/b/g/|
a a a/c'/d'/c'/|b a a/g/b/g/|a/g/a/f/ g:|
g/a/|gfe2|d2 e e/g/|f f/a/ g d|gfe2|
d2 e e/g/|f f/a/ g/d/g/a/|b/a/ b c' a|b>g f d/f/|a2g:|

